svgs/sharp-light/square-arrow-down-left.svg

<svg xmlns="http://www.w3.org/2000/svg" viewBox="0 0 448 512"><!--! Font Awesome Pro 6.5.2 by @fontawesome - https://fontawesome.com License - https://fontawesome.com/license (Commercial License) Copyright 2024 Fonticons, Inc. --><path d="M32 448V64H416V448H32zM0 480H32 416h32V448 64 32H416 32 0V64 448v32zM144 352H280h16V320H280 182.6L315.3 187.3 326.6 176 304 153.4l-11.3 11.3L160 297.4V192 176H128v16V336v16h16z"/></svg>

<svg xmlns="http://www.w3.org/2000/svg" viewBox="0 0 448 512"><!--! Font Awesome Pro 6.6.0 by @fontawesome - https://fontawesome.com License - https://fontawesome.com/license (Commercial License) Copyright 2024 Fonticons, Inc. --><path d="M32 448L32 64l384 0 0 384L32 448zM0 480l32 0 384 0 32 0 0-32 0-384 0-32-32 0L32 32 0 32 0 64 0 448l0 32zM144 352l136 0 16 0 0-32-16 0-97.4 0L315.3 187.3 326.6 176 304 153.4l-11.3 11.3L160 297.4 160 192l0-16-32 0 0 16 0 144 0 16 16 0z"/></svg>
